X:1
T:Lascivette pastorelle
T:Lascivette pastorelle
T:Gio.Girolamo Kapsperger
C:Gio.Girolamo Kapsperger
%%score [ 1 2 ] { 3 | 4 }
L:1/8
Q:1/4=120
M:3/2
K:C
V:1 treble nm="Soprano 1" snm="S 1"
V:2 treble nm="Soprano 2" snm="S 2"
V:3 treble nm="BC" snm="BC"
V:4 bass 
V:1
 z8 d2 d2 |: d6 c2 A2 B2 | c6 c2 G2 A2 | _B6 A2 G3 G | A4 A4 A2 B2 | c4 c2 c4 B2 | c4 c4 G2 A2 | %7
w: La- sci-|vet- te pa- sto-|rel- le che sco-|ren- do'i cam- po'in-|tor- no, tut- te|va- g'e tut- te|bel- le, fa- te'al|
w: Va- ghi'e|gar- ru- li'au- gel-|let- ti che di|qui can- tar so-|le- te, e sfo-|gar con dol- ce'af-|fet- ti, l'a- mo-|
w: Voi ch'in-|tor- no'au- re vo-|lan- ti de gli'ac-|ce- si so- spir|mie- i, rad- dol-|ci- te l'a- ri'a-|van- ti, il bel|
 _B4 B2 A4 A2 |1 G6 G2 d2 d2 ::2 G6 G2 D2 E2 || F8 F4 | z12 | F2 G2 A6 A2 | B8 B4 | ^c4 c4 d2 e2 | %15
w: sol ver- go- gne|scor- no. La- sci-|scor- no. Deh mo-|stra- te,||deh mo- stra- te'al-|la mia|Clo- ri, quan- ti|
w: ro- sa vo- stra|se- te. Va- ghi'e|se- te. Deh mo-|ve- te,||deh mo- ve- te|la mia|Clo- ri, a pie-|
w: vol- to di co-|ste- i. Voi ch'in|ste- i. Ac- cen-|de- te,||ac- cen- de- te'il|suo de-|si- o, d'u- no'ar-|
 f2 e2 d2 c2 B4 | A12 | z12 | d6 c2 B4 | A4 A2 B2 c2 B2 | A8 _B4 | G4 G4 G2 A2 | _B2 A2 G2 F2 E4 | %23
w: so- no'i miei do- lo-|ri,||deh mo- stra-|te, deh mo- stra- te'al-|la mia|Clo- ri, quan- ti|so- no'i miei do- lo-|
w: ta de miei do- lo-|ri,||deh mo- ve-|te, deh mo- ve- te|la mia|Clo- ri, a pie-|ta de miei do- lo-|
w: dor si- mi- le'al mi-|o,||ac- cen- de-|te, ac- cen- de- te'il|suo de-|si- o, d'u- no'ar-|dor si- mi- le'al mi-|
 D12 :| %24
w: ri.|
w: ri.|
w: o.|
V:2
 z12 |: F2 F2 F3 E C2 D2 | E8 E4 | D2 D2 E2 F2 F2 E2 | F4 F4 F2 G2 | A4 A2 G4 F2 | E4 E4 E2 F2 | %7
w: |La- sci- vet- te pa- sto-|rel- le|che sco- ren- do'i cam- po'in-|tor- no, tut- te|va- g'e tut- te|bel- le, fa- te'al|
w: |Va- ghi'e gar- ru- li'au- gel-|let- ti|che di qui can- tar so-|le- te, e sfo-|gar con dol- ce'af-|fet- ti, l'a- mo-|
w: |Voi ch'in- tor- no'au- re vo-|lan- ti|de gli'ac- ce- si so- spir|mie- i, rad- dol-|ci- te l'a- ri'a-|van- ti, il bel|
 G4 G2 G4 ^F2 |1 G8 G4 ::2 G8 G4 || z8 F2 G2 | A8 A4 | D2 E2 F6 A2 | A8 ^G4 | A4 A4 B2 c2 | %15
w: sol ver- go- gne|scor- no.|scor- no.|Deh mo-|stra- te,|deh mo- stra- te'al-|la mia|Clo- ri quan- ti|
w: ro- sa vo- stra|se- te.|se- te.|Deh mo-|ve- te,|deh mo- ve- te|la mia|Clo- ri, a pie-|
w: vol- to di co-|ste- i.|ste- i.|Ac- ce-|den- te,|ac- ce- den- te'il|suo de-|si- o, d'u- no'ar-|
 d2 c2 B2 A2 (A2 ^G2) | A8 D2 E2 | F8 F4 | z12 | z4 F2 G2 A2 G2 | F8 G4 | E4 E4 E2 ^F2 | %22
w: so- no'i miei do- lo- *|ri, deh mo-|stra- te,||deh mo- stra- te'al-|la mia|Clo- ri quan- ti|
w: ta de miei do- lo- *|ri, deh mo-|ve- te,||deh mo- ve- te|la mia|Clo- ri, a pie-|
w: dor si- mi- le'al mi- *|o, ac- ce-|den- te,||ac- ce- den- te'il|suo de-|si- o, d'u- no'ar-|
 G2 F2 E2 D2 (D2 ^C2) | D12 :| %24
w: so- no'i miei do- lo- *|ri.|
w: ta de miei do- lo- *|ri.|
w: dor si- mi- le'al mi- *|o.|
V:3
 [FA]12 |: [FAd]6 [Ec]2 [Ac]2 [FA]2 | [EG]12 | [DB]4 [EG]4 [EG]4 | [CA]12 | [Ac]6 G2 [FA]4 | %6
 [Ec]8 [EG]4 | [D_B]4 [EG]6 [^FA]2 |1 [DB]12 ::2 [DB]12 || [FA]12 | [FA]12 | [FA]12 | G4 A4 ^G4 | %14
 [EA^c]8 [FA]4 | [FA]8 A2 ^G2 | [CEA]8 [FA]4 | [FA]12 | [FAd]8 [^GB]4 | [Ec]4 [Fc]4 A4 | %20
 [Ac]8 [GB]4 | [EGc]8 [EG]2 [D^FA]2 | [D_B]2 [FA]2 [GB]2 [DB]2 D2 ^C2 | [D^FA]12 :| %24
V:4
 D,8 D,4 |: D,6 A,,2 F,2 D,2 | C,8 C,4 | G,,4 C,4 C,4 | F,,8 F,,4 | F,6 E,2 D,4 | C,8 C,4 | %7
 G,,4 C,4 D,4 |1 G,,8 D,4 ::2 G,,8 G,,4 || D,12 | D,12 | D,12 | [E,B,]12 | A,,8 D,4 | D,8 [E,B,]4 | %16
 A,,8 D,4 | D,12 | D,8 E,4 | A,,4 F,4 F,4 | F,8 D,4 | C,8 C,2 A,,2 | %22
 G,,2 A,,2 _B,,2 G,,2 [A,,E,]4 | D,12 :| %24

